src/assets/icons/layout-dashboard.svg

<svg width="24" height="24" viewBox="0 0 24 24" fill="none" xmlns="http://www.w3.org/2000/svg">
<path d="M 9.6654 4.9987 H 5.7765 C 5.3469 4.9987 4.9987 5.3469 4.9987 5.7765 V 11.2209 C 4.9987 11.6505 5.3469 11.9987 5.7765 11.9987 H 9.6654 C 10.0949 11.9987 10.4432 11.6505 10.4432 11.2209 V 5.7765 C 10.4432 5.3469 10.0949 4.9987 9.6654 4.9987 Z" stroke="#314158" stroke-width="1.5" stroke-linecap="round" stroke-linejoin="round"/>
<path d="M 18.2209 4.9987 H 14.3320 C 13.9025 4.9987 13.5543 5.3469 13.5543 5.7765 V 8.1098 C 13.5543 8.5394 13.9025 8.8876 14.3320 8.8876 H 18.2209 C 18.6505 8.8876 18.9987 8.5394 18.9987 8.1098 V 5.7765 C 18.9987 5.3469 18.6505 4.9987 18.2209 4.9987 Z" stroke="#314158" stroke-width="1.5" stroke-linecap="round" stroke-linejoin="round"/>
<path d="M 18.2209 11.9987 H 14.3320 C 13.9025 11.9987 13.5543 12.3469 13.5543 12.7765 V 18.2209 C 13.5543 18.6505 13.9025 18.9987 14.3320 18.9987 H 18.2209 C 18.6505 18.9987 18.9987 18.6505 18.9987 18.2209 V 12.7765 C 18.9987 12.3469 18.6505 11.9987 18.2209 11.9987 Z" stroke="#314158" stroke-width="1.5" stroke-linecap="round" stroke-linejoin="round"/>
<path d="M 9.6654 15.1098 H 5.7765 C 5.3469 15.1098 4.9987 15.4580 4.9987 15.8876 V 18.2209 C 4.9987 18.6505 5.3469 18.9987 5.7765 18.9987 H 9.6654 C 10.0949 18.9987 10.4432 18.6505 10.4432 18.2209 V 15.8876 C 10.4432 15.4580 10.0949 15.1098 9.6654 15.1098 Z" stroke="#314158" stroke-width="1.5" stroke-linecap="round" stroke-linejoin="round"/>
</svg>

<svg fill="none" viewBox="0 0 24 24"><path stroke="currentColor" stroke-linecap="round" stroke-linejoin="round" stroke-width="1.5" d="M9.665 4.999H5.777a.78.78 0 0 0-.778.778v5.444c0 .43.348.778.778.778h3.888c.43 0 .778-.349.778-.778V5.777a.78.78 0 0 0-.778-.778M18.22 4.999h-3.888a.78.78 0 0 0-.778.778V8.11c0 .43.348.778.778.778h3.889c.43 0 .778-.349.778-.778V5.777a.78.78 0 0 0-.778-.778M18.22 11.999h-3.888a.78.78 0 0 0-.778.777v5.445c0 .43.348.778.778.778h3.889c.43 0 .778-.348.778-.778v-5.444a.78.78 0 0 0-.778-.778M9.665 15.11H5.777a.78.78 0 0 0-.778.778v2.333c0 .43.348.778.778.778h3.888c.43 0 .778-.348.778-.778v-2.333a.78.78 0 0 0-.778-.778"/></svg>
